vendor/shopware/storefront/Resources/app/storefront/dist/assets/icon/default/bell-bell.svg

<svg xmlns="http://www.w3.org/2000/svg" width="24" height="24" viewBox="0 0 24 24">
  <path fill="#758CA3" fill-rule="evenodd" d="M11.6020508,2 C8.50812357,2 6,4.50812357 6,7.60205078 L6,11.7639659 C6,13.6196995 5.09390669,15.358531 3.57289816,16.4216773 L2.802338,16.9602793 C2.29953135,17.3117284 2,17.8865418 2,18.5 C2,18.7761424 2.22385763,19 2.5,19 L21.5,19 C21.7761424,19 22,18.7761424 22,18.5 C22,17.8765326 21.7023472,17.2905282 21.1988785,16.9227908 L20.4101737,16.3467147 C18.8954883,15.2403768 18,13.4773828 18,11.6016815 L18,7.53918457 C18,4.47997741 15.5200226,2 12.4608154,2 L11.6020508,2 Z M15.9645556,21 C15.7219407,22.6961471 14.263236,24 12.5,24 C10.736764,24 9.27805926,22.6961471 9.03544443,21 L2.5,21 C1.11928813,21 0,19.8807119 0,18.5 C-1.49590948e-16,17.2334277 0.618425361,16.0466432 1.65654169,15.3210262 L2.42710184,14.7824242 C3.41280071,14.0934457 4,12.9665854 4,11.7639659 L4,7.60205078 C4,3.40355407 7.40355407,1.65521025e-15 11.6020508,1.77635684e-15 L12.4608154,1.77635684e-15 C16.6245921,1.008355e-15 20,3.37540791 20,7.53918457 L20,11.6016815 C20,12.838953 20.5906922,14.0018792 21.5898263,14.7316544 L22.378531,15.3077304 C23.3975511,16.0520305 24,17.2381028 24,18.5 C24,19.8807119 22.8807119,21 21.5,21 L15.9645556,21 Z M13.9146471,21 L11.0853529,21 C11.2912711,21.5825962 11.8468906,22 12.5,22 C13.1531094,22 13.7087289,21.5825962 13.9146471,21 Z"/>
</svg>

<svg xmlns="http://www.w3.org/2000/svg" width="24" height="24" viewBox="0 0 24 24"><path fill="#758CA3" fill-rule="evenodd" d="M11.602 2C8.5082 2 6 4.5081 6 7.602v4.162a5.6827 5.6827 0 0 1-2.4271 4.6577l-.7706.5386A1.8786 1.8786 0 0 0 2 18.5a.5.5 0 0 0 .5.5h19a.5.5 0 0 0 .5-.5 1.9531 1.9531 0 0 0-.8011-1.5772l-.7887-.576A5.876 5.876 0 0 1 18 11.6016V7.5392C18 4.48 15.52 2 12.4608 2h-.8587zm4.3626 19c-.2427 1.6961-1.7014 3-3.4646 3-1.7632 0-3.222-1.3039-3.4646-3H2.5C1.1193 21 0 19.8807 0 18.5a3.8786 3.8786 0 0 1 1.6565-3.179l.7706-.5386A3.6827 3.6827 0 0 0 4 11.764V7.602C4 3.4037 7.4036 0 11.602 0h.8588C16.6246 0 20 3.3754 20 7.5392v4.0625a3.876 3.876 0 0 0 1.5898 3.13l.7887.576A3.9531 3.9531 0 0 1 24 18.5c0 1.3807-1.1193 2.5-2.5 2.5h-5.5354zm-2.05 0h-2.8292c.2059.5826.7615 1 1.4146 1 .6531 0 1.2087-.4174 1.4146-1z"/></svg>
